X:216
T:Patricks Night
C:Paddy OBrien
M:4/4
L:1/8
R:reel
K:Gmaj
|: A |\
BG ~G2 AGEF | GABd egge | dB ~B2 gedB | ~A2 GB AGEG |
BG ~G2 AGEF | GABd egge | dB ~B2 gedB |[1 AGAB ~G3 :|[2 AGAB G4 ||
|: ~g3 a gedB | GB ~B2 GABd | ~g2 fa gedg | eA (3B^cd eaae |
gbaf ~g3 e | dB ~B2 eBdB | GA (3B^cd gedB |[1 AGAB G4 :|[2 AGAB ~G3 |]

